src/images/services/transportation-of-agricultural-machinery.svg

<svg width="96" height="96" viewBox="0 0 96 96" fill="none" xmlns="http://www.w3.org/2000/svg">
<path fill-rule="evenodd" clip-rule="evenodd" d="M21.6933 29.1075C21.9351 27.6213 22.9769 26.438 24.3354 25.9686L24.3354 41.9699H21.0175L20.9911 41.9699H19.6002L21.6933 29.1075ZM26.3354 41.9699H35.8334L37.5927 37.2785C37.7866 36.7614 38.363 36.4994 38.8801 36.6933C39.3972 36.8872 39.6593 37.4636 39.4653 37.9807L37.9694 41.9699H43.4768L39.5682 28.6256C39.0689 26.9211 37.5055 25.75 35.7294 25.75H26.3354L26.3354 41.9699ZM41.4875 28.0634L45.5609 41.9699H70.8275V35.9891C70.8275 32.3525 73.7755 29.4044 77.4121 29.4044C78.3499 29.4044 79.1102 30.1647 79.1102 31.1025V33.9646C79.1102 34.9796 78.2874 35.8023 77.2725 35.8023C76.8995 35.8023 76.5971 36.1047 76.5971 36.4777V41.9699H77.191C80.6592 41.9699 83.8798 43.7669 85.7011 46.7184L86.5651 48.1186C87.4417 49.5392 87.906 51.1756 87.906 52.8449V64.1008C87.906 66.8622 85.6674 69.1008 82.906 69.1008H82.4798C82.7408 70.0848 82.8799 71.1184 82.8799 72.1846C82.8799 78.8091 77.5097 84.1794 70.8851 84.1794C64.2606 84.1794 58.8904 78.8091 58.8904 72.1846C58.8904 71.1184 59.0295 70.0848 59.2905 69.1008H46.7133C46.703 69.1009 46.6926 69.1009 46.6822 69.1008H43.2669C42.7516 77.1677 36.0455 83.5511 27.8485 83.5511C19.5503 83.5511 12.7801 77.0092 12.4138 68.8014C12.3986 68.7859 12.3839 68.7699 12.3695 68.7532L8.34684 64.0799C8.10854 63.803 7.9988 63.4416 8.0383 63.0839C7.99153 62.9202 7.98597 62.7424 8.03063 62.5654L11.3213 49.5234C12.1383 46.2856 14.4828 43.7542 17.4681 42.62L19.7192 28.7863C20.1917 25.8828 22.6996 23.75 25.6413 23.75H35.7294C38.3936 23.75 40.7386 25.5067 41.4875 28.0634ZM25.3277 43.9699H20.9939C17.3393 43.9805 14.1551 46.4672 13.2606 50.0127L11.9953 55.0272C15.7196 50.455 21.3786 47.6244 27.5682 47.6244H29.014C35.4865 47.6244 41.1359 50.8831 44.5018 55.7919H85.906V52.8449C85.906 51.5466 85.5449 50.2738 84.8631 49.1689L83.9991 47.7687C82.542 45.4075 79.9656 43.9699 77.191 43.9699H46.1467L46.1467 43.9699H44.8118H25.343L25.3354 43.9699L25.3277 43.9699ZM85.906 57.7919H45.6983C47.1377 60.5763 47.8972 63.7565 47.7664 67.1008H60.0179C61.9313 63.0177 66.078 60.1898 70.8851 60.1898C75.6923 60.1898 79.839 63.0177 81.7524 67.1008H82.906C84.5629 67.1008 85.906 65.7576 85.906 64.1008V57.7919ZM29.014 49.6244C38.6073 49.6244 46.1769 57.6374 45.7646 67.1008H43.2669C42.7515 59.0339 36.0455 52.6506 27.8485 52.6506C20.0623 52.6506 13.6213 58.4102 12.5536 65.9013L10.0992 63.0499C12.2049 55.1403 19.3696 49.6244 27.5682 49.6244H29.014ZM77.1102 31.4142C74.7189 31.5697 72.8275 33.5585 72.8275 35.9891V41.9699H74.5971V36.4777C74.5971 35.0546 75.7082 33.8911 77.1102 33.8072V31.4142ZM14.3982 68.1008C14.3982 60.6725 20.4201 54.6506 27.8485 54.6506C35.2769 54.6506 41.2987 60.6725 41.2987 68.1008C41.2987 75.5292 35.2769 81.5511 27.8485 81.5511C20.4201 81.5511 14.3982 75.5292 14.3982 68.1008ZM60.8904 72.1846C60.8904 66.6646 65.3652 62.1898 70.8851 62.1898C76.4051 62.1898 80.8799 66.6646 80.8799 72.1846C80.8799 77.7045 76.4051 82.1794 70.8851 82.1794C65.3652 82.1794 60.8904 77.7045 60.8904 72.1846Z" fill="#00CC66"/>
</svg>

<svg xmlns="http://www.w3.org/2000/svg" width="96" height="96" fill="none"><path fill="#0C6" fill-rule="evenodd" d="M21.693 29.108a4 4 0 0 1 2.642-3.14V41.97h-4.734l2.092-12.862Zm4.642 12.862h9.498l1.76-4.691a1 1 0 0 1 1.872.702L37.97 41.97h5.508l-3.909-13.344a4 4 0 0 0-3.839-2.876h-9.394v16.22Zm15.152-13.907 4.074 13.907h25.267v-5.98a6.585 6.585 0 0 1 6.584-6.586c.938 0 1.698.76 1.698 1.698v2.863a1.838 1.838 0 0 1-1.838 1.837.675.675 0 0 0-.675.676v5.492h.594a10 10 0 0 1 8.51 4.748l.864 1.4a9 9 0 0 1 1.341 4.727V64.1a5 5 0 0 1-5 5h-.426c.26.984.4 2.017.4 3.084 0 6.624-5.37 11.994-11.995 11.994-6.624 0-11.995-5.37-11.995-11.994 0-1.067.14-2.1.4-3.084H43.267c-.515 8.067-7.222 14.45-15.419 14.45-8.298 0-15.068-6.542-15.434-14.75a1.02 1.02 0 0 1-.044-.048L8.347 64.08a1.307 1.307 0 0 1-.309-.996.995.995 0 0 1-.007-.519l3.29-13.042a10 10 0 0 1 6.147-6.903l2.251-13.834a6 6 0 0 1 5.922-5.036H35.73a6 6 0 0 1 5.758 4.313ZM25.327 43.97h-4.333a8 8 0 0 0-7.733 6.043l-1.266 5.014a20.074 20.074 0 0 1 15.573-7.403h1.446c6.473 0 12.122 3.26 15.488 8.168h41.404v-2.947a7 7 0 0 0-1.043-3.676l-.864-1.4a8 8 0 0 0-6.808-3.8H25.328Zm60.579 13.822H45.698a18.628 18.628 0 0 1 2.068 9.309h12.252a11.996 11.996 0 0 1 10.867-6.911c4.807 0 8.954 2.828 10.867 6.91h1.154a3 3 0 0 0 3-3v-6.308Zm-56.892-8.168c9.593 0 17.163 8.013 16.75 17.477h-2.497c-.516-8.067-7.222-14.45-15.419-14.45-7.786 0-14.227 5.76-15.294 13.25l-2.455-2.851a18.078 18.078 0 0 1 17.47-13.426h1.445Zm48.096-18.21a4.585 4.585 0 0 0-4.282 4.575v5.98h1.77v-5.491a2.675 2.675 0 0 1 2.512-2.67v-2.394ZM14.398 68.101c0-7.428 6.022-13.45 13.45-13.45 7.429 0 13.45 6.021 13.45 13.45 0 7.428-6.021 13.45-13.45 13.45-7.428 0-13.45-6.022-13.45-13.45Zm46.492 4.084c0-5.52 4.475-9.995 9.995-9.995s9.995 4.475 9.995 9.995-4.475 9.994-9.995 9.994-9.995-4.475-9.995-9.994Z" clip-rule="evenodd"/></svg>
